X:1
T:Title
%%score 1 2 3 4
L:1/8
Q:1/4=96
M:4/4
K:C
V:1 treble nm="Sopraan" snm="S"
V:2 treble-8 nm="Tenor" snm="T"
V:3 bass nm="Bas" snm="B"
V:4 bass nm="B.Cont." snm="B.C."
V:1
"^1" G8 | B4 c2 B2 | d3 d d4 | z4 z2 G2 | FGAF GABc | ABcA Bcde | cB d4 ^c2 | d4 z4 | z2 G4 E2 | %9
w: Sub|tu- um prae-|si- di- um|con-|fu- * * * * * * *||* * * gi-|mus,|san- cta|
 C2 D2 EF G2- | G2 FE G^F A2- | A2 ^G2 A4 | z4 A4 | F4 E4- | E2 C2 D3 D |"^2" C4 c4 | A2 F2 E4 | %17
w: De- i Ge- * *||* ni- trix.|Sub|tu- um|* prae- si- di-|um con-|fu- gi- mus,|
 D2 C2 G2 G2 | E2 D2 A4 | D4 G4 | z2 G2 FGAF | GABc ABcA | Bcde cB d2- | d2 ^c2 d2 A2 | FGAF GABc | %25
w: san- cta, san- cta|De- i Ge-|ni- trix,|con- fu- * * *|||* gi- mus, con|fu- * * * * * * *|
 ABcA Bcde | cB d4 ^c2 | d4 z2 G2- | G2 E2 C2 D2 | EF G4 ^FE |"^3" ^FG A4 ^G2 | A2 E4 E2 | %32
w: |* * * gi-|mus, san-|* cta De- i|Ge- * * * *|* * * ni-|trix. Nos- tras|
 C2 F2 A4 | A2 A3 BcA | d6 ^c2 | d4 z4 | A6 G2 | c3 c B2 B2- | B2 A2 G2 ^F2 | G2 c2 A2 B2- | %40
w: de- pre- ca-|ti- o- * * *||nes|ne des-|pi- ci- as, ne|* des- pi- ci-|as in ne- ces-|
 BA/G/ A2 G^F G2 | E2 ^F3 E D2 | z2 z A ^F2 G2 |"^4" E2 ^F3 E/D/ E2- | E2 A2 D2 z D- | %45
w: |si- ta- ti- bus,|in ne- ces-|si- ta * * *|* ti- bus. Sed|
 DDB,E>DC D2 | B, G2 F ED C>B, | A,A,AB GcAd | GcAB GA>^FG- | G^F z G2 GEA- | A/G/F G2 E c2 B | %51
w: * a pe- ri- cu- lis cun-|ctis li- be- ra nos sem- *|* per, Vir- go glo- ri- o- sa,|glo- ri- o- sa et be- ne- di-|* ta, sed a pe- ri-|* cu- lis cun- ctis li- be-|
 AG F>E D3 E |"^5" CFDG CB,DG | CDE C2 B, z G | GE D>C B, E>DC | D2 B, G2 FED | C/D/ E2 D d B2 e | %57
w: ra nos sem- * * per|Vir- go, Vir- go glo- ri- o- sa|et be- ne- dic- ta, sed|a pe- ri- cu- lis cun- * *|* tis li- be- ra nos|sem- * * per, Vir- go, Vir-|
 ABEF DEcA | ^F G2 F G4- | G8 |] %60
w: go glo- ri- o- sa et be- ne-|di- * * cta.||
V:2
 z8 | z8 | d4 B4 | A2 B4 c2- | cBAA G2 z2 | z2 c2 BGAB | c d2 c B2 G2 | A4 d4 | B4 G4 | %9
w: ||Sub tu-|um prae- si-|* * * di- um|con- fu- * * *|* * * * gi-|mus, san-|cta De-|
 A2 BA/B/ c2 B2 | A3 B/c/ d3 c | B2 B2 A4 | A4 c4 | d2 c2 A3 G/F/ | E2 F3 DGF | E2 F2 E2 G2 | %16
w: i Ge- * * * *||* ni- trix.|Sub tu-|um prae- si- * *||* di- um con-|
 FGAB cABc | dBed/c/ Bcde- | e/d/ c2 B c4- | c2 B2 c4 | e4 c3 d | B2 G2 F f2 e | d2 B2 e2 f2 | %23
w: fu- * * * * * * *|||* gi- mus,|con- fu- *|* gi- mus, san- cta|De- i * *|
 e2 e2 d4 | A2 c3 c B A/G/ | d2 c2 BGAB | c d2 c B2 G2 | A4 B4 | G4 A2 B2 | c3 B A3 B/c/ | %30
w: Ge- ni- trix,|con- fu- gi- mus, * *|* con fu- * * *|* * * * gi-|mus, san-|cta De- i|Ge- * * * *|
 d3 c B2 B2 | A4 c4 | c2 A4 d2 | f3 e d2 A2- | A2 ^G2 A4 | z4 e4- | e2 d2 c2 B2- | B2 A2 B4 | %38
w: * * * ni-|trix. Nos-|tras de- pre-|ca- * * ti-|* o- nes|ne|* des- pi- *|* ci- as,|
 e6 d2 | e3 e c2 d2 | B c2 A B4 | A4 G4 | z G2 E A2 B2 | A2 A2 G4 | c2 AA B>A G2 | B2 BG c>B AB- | %46
w: ne des-|pi- ci- as in|ne- ces- si- ta-|ti- bus,|in ne- ces- si-|ta ti- bus.|Sed a pe- ri- cu- lis|Sed a pe- ri- cu- lis cun-|
 BG E4 F2 | c2 c B2 e d>G | EA^FG E c2 B | A>B cB e2 ec | f>e d e2 cAB | c2 d A2 G/A/ B2 | %52
w: * ctis li- be-|ra nos sem- per, Vir- go|glo- ri- o- sa, et be- ne-|di- * * ta, sed a pe-|ri- cu- lis cun- ctis li- be-|ra nos sem- * * *|
 AdBe AdBc- | c/B/A Bc d2 e2 | z c2 B Gc>BA | dB e3 d c2- | cB A3 BGA- | AdGc FG E/E/c- | %58
w: per Vir- go, glo- ri- o- sa et|* * * be- ne- dic- ta,|sed a pe- ri- cu- lis|cun- tis li- be- ra|* nos sem- per, Vir- go,|* glo- ri- o- sa et be- ne- di-|
 cB A2 B4- | B8 |] %60
w: * * * cta.||
V:3
 z4 G,4- | G,4 E,4 | D,6 B,,2 | C,2 D,2 E,4 | D,2 C,D, E,C,D,E, | F,G,E,F, G,E,F,G, | %6
w: Sub|* tu-|um prae-|si- di- um|con- fu- * * * * *||
 A,G,F,E,/D,/ E,2 E,2 | D,4 z4 | G,4 E,2 C,2- | C,2 B,,2 A,,2 G,,2 | D,3 C, B,,2 A,,2 | E,4 z4 | %12
w: * * * * * * gi-|mus,|san- cta san-|* cta De- i|Ge- * * ni-|trix.|
 F,4 A,4 | _B,2 A,2 C3 =B,/A,/ | C6 B,2 | C4 z2 E,2 | D,E,F,D, E,F,G,A, | F,G,A,F, G,A,B,C | %18
w: Sub tu-|um prae- si- * *|* di-|um con-|fu- * * * * * * *||
 G,6 ^F,2 | G,3 F, E,D, E,2 | C4 A,2 F,2 | E,4 D,2 C,2 | G,2 G,2 E,2 D,2 | A,2 A,2 D,4 | %24
w: * gi-|mus, * * * *|con- fu- gi-|mus, san- cta,|san- cta De- i|Ge- ni- trix,|
 D,2 C,D, E,C,D,E, | F,G,E,F, G,E,F,G, | A,G,F,E,/D,/ E,2 E,2 | D,4 G,4 | E,2 C,4 B,,2 | %29
w: con- fu- * * * * *||* * * * * * gi-|mus, san-|cta san- cta|
 A,,2 G,,2 D,3 C, | B,,2 A,,2 E,4 | z2 C,4 C,2 | A,,2 D,2 F,3 E, | D,C, D,4 C,2 | _B,,4 A,,4 | %35
w: De- i Ge- *|* ni- trix.|Nos- tras|de- pre- ca- *|* * * ti-|o- nes|
 z2 D,4 C,2 | F,3 F, E,4- | E,2 A,4 G,2 | C3 C B,4 | G,2 E,2 F,2 E,D, | E,2 C,2 D,2 C,B,, | %41
w: ne des-|pi- ci- as,|* ne des-|pi- ci- as|in ne- ces- * *|* si- ta- * *|
 C,2 A,,2 B,,4 | E,2 C,2 D,2 C,B,, | C,2 A,,2 B,,2 A,,G,, | A,,2 ^F,,2 G,,4 | %45
w: * ti- bus,|in ne- ces- * *|* si- ta * *|* ti- bus.|
 G,2 G,E, A,>G, ^F,G,- | G,E, C3 B,A,G, | F,>E, D,2 E,C,D,B,, | C, A,,2 G,, z C,D,G,, | %49
w: Sed a pe- ri- cu- lis cun-|* ctis li- be- ra nos|sem- * * per, Vir- go glo-|ri- o- sa, et be- ne-|
 D,2 E,2 z C,C,A,, | D,>C, B,, C,2 A,, F,2- | F,E,D,C, _B,,>A,, G,,2 | A,,F,,G,,E,, F,, G,,2 E,, | %53
w: di- ta, sed a pe-|ri- cu- lis cun- ctis li-|* be- ra nos sem- * *|per Vir- go glo- ri- o- sa|
 z F,, G,,A,, G,, G,2 E, | z2 G,2 G,E, A,>G, | ^F, G,2 E, C3 B, | A,G, F,>E, D,2 E,C, | %57
w: et be- * ne- dic- ta,|sed a pe- ri- cu-|lis cun- tis li- be-|ra nos sem- * * per, Vir-|
 D,B,,C, A,,2 G,, z C, | D,G,, D,2 G,,4- | G,,8 |] %60
w: go glo- ri- o- sa et|be- ne- di- cta.||
V:4
 G,4 G,4- | G,4 E,2 E,2 | D,4 D,2 B,,2 | C,2 D,2 E,2 E,2 | D,2"^6" C,D, E,C,D,E, | %5
w: |* 6 *|* 6 *|6 6 * 6|7 6 * * 6 * *|
 F,G,E,F, G,E,F,G, | A,G, F,E,/D,/ E,2 E,2 | D,8 | G,4 E,2 C,2 | C,2 B,,2 A,,2 G,,2 | %10
w: * * 6 * * 6 * 6|* * 6 * * * 6#|||6 * * *|
 D,3"^10" C, B,,2 A,,2 | E,4"^#" A,4 | F,4 A,4 | _B,2 A,2 A,3 G,/F,/ | E,2 F,2 F,D,G,F, | %15
w: 11 * * *|11 *||* 6 * * *|* * 6 * * *|
 E,2 F,2 E,2 E,2 | D,E,F,D, E,F,G,A, | F,G,A,F, G,A,B,C | G,2 G,4 ^F,2 | G,3 F, E,D, E,2 | %20
w: 6 * 6 6|6 6 * 6 * 6 * *|6 * * * * * * *|6 * *|* * 6 * 6|
 C4 A,2 F,2 | E,4 D,2 C,2"^10" | G,4 E,2 D,2 | A,2 A,2 D,4 | D,2 C,D, E,C,D,E, | %25
w: * 6 *|* * 11|* 6 *|11 # *|* 6 * * 6 * 6|
 F,G,E,F, G,E,F,G, | A,G, F,E,/D,/ E,2 E,2 | D,4 G,4 | E,2 C,2 C,2 B,,2 | A,,2 G,,2 D,3"^#" C, | %30
w: * * 6 * * 6 * 6|* * 6 * * * 6#||* * 6 *|* * 11 *|
 B,,2 A,,2 E,4"^#" | A,,2 C,4 C,2 | A,,2 D,2 F,3 E, | D,C, D,4 C,2 | _B,,4"^6#" A,,4 | %35
w: * * 11|||* * * 6|7 *|
 D,2 D,4 C,2 | F,4"^6" E,4"^10" | E,2 A,2 A,2 G,2 | C4"^6" B,4"^3" | G,2 E,2 F,2 E,D, | %40
w: |7 11|6 * 2 3|7 4|* 6 * * *|
 E,2 C,2 D,2 C,B,, | C,2 A,,2 B,,4 | E,2 C,2 D,2 C,B,, | C,2 A,,2 B,,2 A,,G,, | A,,2 ^F,,2 G,,4 | %45
w: * 6 * * *|* 6# *|* 6 * * *|* 6# * * *||
 G,2 G,E, A,>G, ^F,G,- | G,E, E,4 F,2 | F,>E, D,D, E,C,D,B,, | C,A,,A,,G,, C,2 D,G,, | %49
w: |* * 6 *|* * * 6 * * * *|* * 6# * * # *|
 D,2"^#" E,E, C,2 C,A,, | D,>C, B,, C,2 A,, F,2- | F,E,D,C, _B,,>A,, G,,G,, | %52
w: 11 # * * * *||* * * * * * * 6|
 A,,F,,G,,E,, F,, G,,2 E,, | F,,2 G,,A,, G,,2"^10" E,,2 | C,G, G,2 G,E, A,>G, | ^F,G,G,E, C3 B, | %56
w: * * * * * * 6|* * * 11 *|* 6 * * 6 * *|* * 6 * * *|
 A,G, F,>"^6"E, D,D,E,C, | D,B,,C,A,, A,,G,, A,,>C, | D,G,, D,2"^#" G,,4- | G,,8 |] %60
w: * * 7 * * 6 * 6|* * * * 6 * * *|# * 11 *||

